Yaru++/mimetypes/scalable/application-pdf.svg

<svg height="256" viewBox="0 0 67.73 67.73" width="256" xmlns="http://www.w3.org/2000/svg" xmlns:xlink="http://www.w3.org/1999/xlink"><linearGradient id="a" gradientUnits="userSpaceOnUse" x1="48.50461" x2="41.783234" y1="11.951899" y2="18.809672"><stop offset="0" stop-color="#f0647b"/><stop offset="1" stop-color="#f77786"/></linearGradient><filter id="b" color-interpolation-filters="sRGB" height="1.072" width="1.072" x="-.036" y="-.036"><feGaussianBlur stdDeviation=".99"/></filter><radialGradient id="c" cx="179.99261" cy="103.2822" gradientTransform="matrix(1.3687341 -.00000021 .0000002 1.3528551 -121.02851 -70.900578)" gradientUnits="userSpaceOnUse" r="35.068905"><stop offset="0"/><stop offset="1" stop-opacity="0"/></radialGradient><filter id="d" color-interpolation-filters="sRGB" height="1.144" width="1.144" x="-.072" y="-.072"><feGaussianBlur stdDeviation="1.98"/></filter><linearGradient id="e" gradientTransform="matrix(0 -.11988342 .11987999 0 .362762 62.749399)" gradientUnits="userSpaceOnUse" x1="494.34482" x2="-2.206897" y1="169.68051" y2="386.30795"><stop offset="0" stop-color="#da1636"/><stop offset="1" stop-color="#f22c42"/></linearGradient><linearGradient id="f" gradientUnits="userSpaceOnUse" x1="88" x2="488" y1="88" y2="488"><stop offset="0" stop-opacity=".588235"/><stop offset=".88" stop-opacity="0"/><stop offset="1"/></linearGradient><filter id="g" color-interpolation-filters="sRGB" height="1.087725" width="1.105998" x="-.052999" y="-.043863"><feGaussianBlur stdDeviation="8.4801079"/></filter><filter id="h" color-interpolation-filters="sRGB" height="1.021931" width="1.0265" x="-.01325" y="-.010966"><feGaussianBlur stdDeviation="2.120027"/></filter><path d="m189.84323 74c-70.59344 0-78.18921 7.250835-77.84323 77.98706v146.01294 146.01294c-.34598 70.73623 7.24979 77.98706 77.84323 77.98706h196.31354c70.59344 0 76.00668-7.27384 77.84323-77.98706v-146.01294-98l-128-126z" filter="url(#h)" opacity=".1" transform="matrix(.13228516 0 0 .13228516 -4.409451 -6.038882)"/><path d="m189.84323 74c-70.59344 0-78.18921 7.250835-77.84323 77.98706v146.01294 146.01294c-.34598 70.73623 7.24979 77.98706 77.84323 77.98706h196.31354c70.59344 0 77.84323-7.24999 77.84323-77.98706v-146.01294-96l-128-128z" fill="url(#f)" filter="url(#g)" opacity=".3" transform="matrix(.13228516 0 0 .13228516 -4.409451 -6.038882)"/><path d="m20.70399 3.4856504c-9.338464 0-10.343272.959178-10.297504 10.3165296v19.315345 19.315344c-.04577 9.357355.95904 10.316531 10.297504 10.316531h25.969365c9.338465 0 10.297506-.959068 10.297506-10.316531v-19.315344-12.699376l-16.9325-16.9324986z" fill="url(#e)"/><g fill="#fff"><path d="m20.704059 3.4856504c-9.338466 0-10.343341.959339-10.297573 10.3166906v.529141c-.04577-9.3573516.959107-10.3166916 10.297573-10.3166916h19.334302v-.52914z" opacity=".4"/><path d="m27.590046 41.241032c1.05462-2.067104 2.253179-4.396071 3.2125-6.734278l.379315-.923027c-1.253045-4.768224-2.004419-8.5957-1.333167-11.070586.180701-.645234.928022-1.03671 1.727001-1.03671l.48687.0072h.08936c1.093835-.01677 1.60889 1.374644 1.667333 1.915624.09653.900968-.320307 2.425774-.320307 2.425774 0-.615729.02413-1.61068-.364517-2.469229-.452369-.993474-.884474-1.586958-1.271895-1.681034-.195596.13065-.385727.401186-.450862.921615-.134891.729692-.17533 1.650741-.17533 2.125547 0 1.677513.330297 3.891668.979396 6.174164.122449-.353395.230193-.692931.315876-1.011071.1331-.501388.979305-3.825024.979305-3.825024s-.213226 4.424257-.511097 5.762893c-.06382.282886-.13423.562659-.207569.849032 1.070362 2.990698 2.795101 5.659956 4.852591 7.581046.81123.75816 1.835782 1.369461 2.805469 1.926651 2.117631-.302586 4.067377-.445489 5.693987-.427485 2.158068.02847 3.742164.347643 4.383628.979492.314085.307111.441531.678036.481121 1.093832.0094.161758-.06938.541827-.09247.637223.0231-.115475.0231-.683316-1.709281-1.236266-1.36437-.436157-3.917873-.422585-6.981907-.09643 3.544025 1.733883 6.996707 2.595358 8.090917 2.078888.267519-.13037.591974-.574917.591974-.574917s-.192863.876275-.331337 1.095342c-.176743.238015-.523444.495826-.852141.582737-1.728038.461043-6.226197-.605831-10.147557-2.846475-4.381179.645234-9.192671 1.837195-13.049461 3.102212-3.790051 6.642088-6.639448 9.692641-8.957481 8.532165l-.852236-.428522c-.346418-.198142-.3993-.680488-.319176-1.073285.270253-1.322233 1.928253-3.313738 5.258675-5.302413.358485-.216902 1.95531-1.06122 1.95531-1.06122s-1.182159 1.144171-1.459106 1.368707c-2.65823 2.178334-4.620135 4.918856-4.571213 5.981299l.0096.09266c2.258086-.321815 5.644408-4.917911 9.997872-13.436126m1.379639.706411c-.727147 1.369461-1.437894 2.639189-2.094063 3.80504 3.629711-1.520753 7.536368-2.49393 11.255155-3.185258-.499784-.345097-.984958-.710559-1.441477-1.09685-2.047875-1.733787-3.60916-3.896851-4.740889-6.173031-.717721 1.933625-1.571182 3.988381-2.978726 6.650099" stroke-width=".103663"/><path d="m33.688673 3.4856504v59.2637496h12.984614c9.338464 0 10.054627-.962123 10.297574-10.316435v-19.31544-12.699376l-16.9325-16.9324986z" opacity=".075"/><path d="m10.406486 33.117525v19.31544c-.04577 9.357354.959108 10.316435 10.297573 10.316435h25.969228c9.338464 0 10.054627-.962123 10.297574-10.316435v-19.31544z" opacity=".075"/><path d="m41.096642 62.7494 15.874219-15.874219v5.948567c-.01384 8.994282-1.006077 9.925652-10.099734 9.925652z" opacity=".075"/></g><path d="m185.33354 74.825228-64-65.9999998.003 24.9985698v1 .53711c0 35.29429 1.62603 39.63197 36.99414 39.45899z" fill="url(#c)" filter="url(#d)" opacity=".1" transform="matrix(.26457031 0 0 .26457031 7.937109 1.150756)"/><path d="m185.33354 74.825228v-2l-64-63.9999998v24.9990938 1 .53711c0 34.463796 4 39.463796 36.99414 39.458996z" filter="url(#b)" opacity=".1" transform="matrix(.26457031 0 0 .26457031 7.937109 1.150756)"/><path d="m56.970085 20.416739-16.930949-16.9309516v6.084601.264571.142103c0 9.3378206.95934 10.4854426 10.316692 10.4396766z" fill="url(#a)"/></svg>

<?xml version="1.0" encoding="UTF-8" standalone="no"?>
<svg
   xmlns:dc="http://purl.org/dc/elements/1.1/"
   xmlns:cc="http://creativecommons.org/ns#"
   xmlns:rdf="http://www.w3.org/1999/02/22-rdf-syntax-ns#"
   xmlns:svg="http://www.w3.org/2000/svg"
   xmlns="http://www.w3.org/2000/svg"
   xmlns:xlink="http://www.w3.org/1999/xlink"
   xmlns:sodipodi="http://sodipodi.sourceforge.net/DTD/sodipodi-0.dtd"
   xmlns:inkscape="http://www.inkscape.org/namespaces/inkscape"
   height="256"
   viewBox="0 0 67.73 67.73"
   width="256"
   version="1.1"
   id="svg39"
   sodipodi:docname="application-pdf.svg"
   inkscape:version="0.92.5 (2060ec1f9f, 2020-04-08)">
  <metadata
     id="metadata45">
    <rdf:RDF>
      <cc:Work
         rdf:about="">
        <dc:format>image/svg+xml</dc:format>
        <dc:type
           rdf:resource="http://purl.org/dc/dcmitype/StillImage" />
      </cc:Work>
    </rdf:RDF>
  </metadata>
  <defs
     id="defs43">
    <linearGradient
       gradientTransform="matrix(0.26457031,0,0,0.26457031,-6.5260144,-8.1554446)"
       inkscape:collect="always"
       xlink:href="#linearGradient5913"
       id="linearGradient12719-7"
       x1="208"
       y1="76"
       x2="182.59512"
       y2="101.92042"
       gradientUnits="userSpaceOnUse" />
    <linearGradient
       id="linearGradient5913"
       inkscape:collect="always">
      <stop
         id="stop5909"
         offset="0"
         style="stop-color:#f0647b;stop-opacity:1" />
      <stop
         id="stop5911"
         offset="1"
         style="stop-color:#f77786;stop-opacity:1" />
    </linearGradient>
    <filter
       inkscape:collect="always"
       style="color-interpolation-filters:sRGB"
       id="filter8603"
       x="-0.035999998"
       width="1.072"
       y="-0.035999998"
       height="1.072">
      <feGaussianBlur
         inkscape:collect="always"
         stdDeviation="0.99"
         id="feGaussianBlur8605" />
    </filter>
    <radialGradient
       inkscape:collect="always"
       xlink:href="#linearGradient1750"
       id="radialGradient1752"
       cx="179.99261"
       cy="103.2822"
       fx="179.99261"
       fy="103.2822"
       r="35.068905"
       gradientTransform="matrix(1.3687341,-2.0954866e-7,2.0316901e-7,1.3528551,-121.02851,-70.900578)"
       gradientUnits="userSpaceOnUse" />
    <linearGradient
       inkscape:collect="always"
       id="linearGradient1750">
      <stop
         style="stop-color:#000000;stop-opacity:1;"
         offset="0"
         id="stop1746" />
      <stop
         style="stop-color:#000000;stop-opacity:0;"
         offset="1"
         id="stop1748" />
    </linearGradient>
    <filter
       inkscape:collect="always"
       style="color-interpolation-filters:sRGB"
       id="filter2553"
       x="-0.071999997"
       width="1.1440001"
       y="-0.071999997"
       height="1.1440001">
      <feGaussianBlur
         inkscape:collect="always"
         stdDeviation="1.98"
         id="feGaussianBlur2555" />
    </filter>
    <linearGradient
       gradientUnits="userSpaceOnUse"
       y2="386.30795"
       x2="-2.2068965"
       y1="169.68051"
       x1="494.34482"
       id="linearGradient4226"
       xlink:href="#linearGradient4246"
       inkscape:collect="always"
       gradientTransform="matrix(0,-0.11988342,0.11987999,0,0.36276173,62.749399)" />
    <linearGradient
       inkscape:collect="always"
       id="linearGradient4246">
      <stop
         style="stop-color:#da1636;stop-opacity:1"
         offset="0"
         id="stop4248" />
      <stop
         style="stop-color:#f22c42;stop-opacity:1"
         offset="1"
         id="stop4250" />
    </linearGradient>
    <linearGradient
       inkscape:collect="always"
       xlink:href="#linearGradient4360"
       id="linearGradient4358"
       x1="88"
       y1="88"
       x2="488"
       y2="488"
       gradientUnits="userSpaceOnUse" />
    <linearGradient
       id="linearGradient4360"
       inkscape:collect="always">
      <stop
         id="stop4362"
         offset="0"
         style="stop-color:#000000;stop-opacity:0.58823532" />
      <stop
         style="stop-color:#000000;stop-opacity:0"
         offset="0.88"
         id="stop4364" />
      <stop
         id="stop4366"
         offset="1"
         style="stop-color:#000000;stop-opacity:1" />
    </linearGradient>
    <filter
       inkscape:collect="always"
       style="color-interpolation-filters:sRGB"
       id="filter4380"
       x="-0.052999184"
       width="1.1059984"
       y="-0.043862626"
       height="1.0877253">
      <feGaussianBlur
         inkscape:collect="always"
         stdDeviation="8.4801079"
         id="feGaussianBlur4382" />
    </filter>
    <filter
       inkscape:collect="always"
       style="color-interpolation-filters:sRGB"
       id="filter4346"
       x="-0.013249796"
       width="1.0264996"
       y="-0.010965657"
       height="1.0219313">
      <feGaussianBlur
         inkscape:collect="always"
         stdDeviation="2.120027"
         id="feGaussianBlur4348" />
    </filter>
  </defs>
  <sodipodi:namedview
     pagecolor="#ffffff"
     bordercolor="#666666"
     borderopacity="1"
     objecttolerance="10"
     gridtolerance="10"
     guidetolerance="10"
     inkscape:pageopacity="0"
     inkscape:pageshadow="2"
     inkscape:window-width="834"
     inkscape:window-height="480"
     id="namedview41"
     showgrid="false"
     inkscape:zoom="0.921875"
     inkscape:cx="128"
     inkscape:cy="128"
     inkscape:window-x="0"
     inkscape:window-y="28"
     inkscape:window-maximized="0"
     inkscape:current-layer="svg39" />
  <linearGradient
     id="a"
     gradientTransform="matrix(0 -.11988932 -.11988589 0 67.016455 292.5483)"
     gradientUnits="userSpaceOnUse"
     x1="529.655"
     x2="-35.31"
     y1="401.584"
     y2="119.093">
    <stop
       offset="0"
       stop-color="#da1636"
       id="stop2" />
    <stop
       offset="1"
       stop-color="#f22c42"
       id="stop4" />
  </linearGradient>
  <linearGradient
     id="b"
     gradientUnits="userSpaceOnUse"
     x1="88"
     x2="488"
     y1="88"
     y2="488">
    <stop
       offset="0"
       stop-opacity=".588235"
       id="stop7" />
    <stop
       offset=".88"
       stop-opacity="0"
       id="stop9" />
    <stop
       offset="1"
       id="stop11" />
  </linearGradient>
  <filter
     id="c"
     color-interpolation-filters="sRGB"
     height="1.022"
     width="1.026"
     x="-.01"
     y="-.01">
    <feGaussianBlur
       stdDeviation="2.12"
       id="feGaussianBlur14" />
  </filter>
  <path
     style="color:#000000;display:inline;overflow:visible;visibility:visible;opacity:0.1;fill:#000000;fill-opacity:1;fill-rule:nonzero;stroke:none;stroke-width:2;marker:none;filter:url(#filter4346);enable-background:accumulate"
     d="M 189.84323,74 C 119.24979,74 111.65402,81.250835 112,151.98706 V 298 444.01294 C 111.65402,514.74917 119.24979,522 189.84323,522 H 386.15677 C 456.75021,522 462.16345,514.72616 464,444.01294 V 298 200 L 336,74 Z"
     id="rect4158-9"
     inkscape:connector-curvature="0"
     sodipodi:nodetypes="scccssscccs"
     transform="matrix(0.13228516,0,0,0.13228516,-4.4094514,-6.0388816)" />
  <path
     sodipodi:nodetypes="scccssscccs"
     inkscape:connector-curvature="0"
     id="path4350"
     d="M 189.84323,74 C 119.24979,74 111.65402,81.250835 112,151.98706 V 298 444.01294 C 111.65402,514.74917 119.24979,522 189.84323,522 H 386.15677 C 456.75021,522 464,514.75001 464,444.01294 V 298 202 L 336,74 Z"
     style="color:#000000;display:inline;overflow:visible;visibility:visible;opacity:0.3;fill:url(#linearGradient4358);fill-opacity:1;fill-rule:nonzero;stroke:none;stroke-width:2;marker:none;filter:url(#filter4380);enable-background:accumulate"
     transform="matrix(0.13228516,0,0,0.13228516,-4.4094514,-6.0388816)" />
  <path
     style="color:#000000;display:inline;overflow:visible;visibility:visible;fill:url(#linearGradient4226);fill-opacity:1;fill-rule:nonzero;stroke:none;stroke-width:0.26457033;marker:none;enable-background:accumulate"
     d="m 20.70399,3.4856504 c -9.338464,0 -10.343272,0.959178 -10.297504,10.3165296 V 33.117525 52.432869 C 10.360716,61.790224 11.365526,62.7494 20.70399,62.7494 h 25.969365 c 9.338465,0 10.297506,-0.959068 10.297506,-10.316531 V 33.117525 20.418149 L 40.038361,3.4856504 Z"
     id="rect4158"
     inkscape:connector-curvature="0"
     sodipodi:nodetypes="scccssscccs" />
  <path
     style="color:#000000;display:inline;overflow:visible;visibility:visible;opacity:0.4;fill:#ffffff;fill-opacity:1;fill-rule:nonzero;stroke:none;stroke-width:0.26457033;marker:none;enable-background:accumulate"
     d="m 20.704059,3.4856504 c -9.338466,0 -10.343341,0.959339 -10.297573,10.3166906 v 0.529141 C 10.360716,4.9741304 11.365593,4.0147904 20.704059,4.0147904 h 19.334302 v -0.52914 z"
     id="path931"
     inkscape:connector-curvature="0"
     sodipodi:nodetypes="sccsccs" />
  <path
     d="m 27.590046,41.241032 c 1.05462,-2.067104 2.253179,-4.396071 3.2125,-6.734278 v 0 l 0.379315,-0.923027 c -1.253045,-4.768224 -2.004419,-8.5957 -1.333167,-11.070586 v 0 c 0.180701,-0.645234 0.928022,-1.03671 1.727001,-1.03671 v 0 l 0.48687,0.0072 h 0.08936 c 1.093835,-0.01677 1.60889,1.374644 1.667333,1.915624 v 0 c 0.09653,0.900968 -0.320307,2.425774 -0.320307,2.425774 v 0 c 0,-0.615729 0.02413,-1.61068 -0.364517,-2.469229 v 0 C 32.682065,22.362326 32.24996,21.768842 31.862539,21.674766 v 0 c -0.195596,0.13065 -0.385727,0.401186 -0.450862,0.921615 v 0 c -0.134891,0.729692 -0.17533,1.650741 -0.17533,2.125547 v 0 c 0,1.677513 0.330297,3.891668 0.979396,6.174164 v 0 c 0.122449,-0.353395 0.230193,-0.692931 0.315876,-1.011071 v 0 c 0.1331,-0.501388 0.979305,-3.825024 0.979305,-3.825024 v 0 c 0,0 -0.213226,4.424257 -0.511097,5.762893 v 0 c -0.06382,0.282886 -0.13423,0.562659 -0.207569,0.849032 v 0 c 1.070362,2.990698 2.795101,5.659956 4.852591,7.581046 v 0 c 0.81123,0.75816 1.835782,1.369461 2.805469,1.926651 v 0 c 2.117631,-0.302586 4.067377,-0.445489 5.693987,-0.427485 v 0 c 2.158068,0.02847 3.742164,0.347643 4.383628,0.979492 v 0 c 0.314085,0.307111 0.441531,0.678036 0.481121,1.093832 v 0 c 0.0094,0.161758 -0.06938,0.541827 -0.09247,0.637223 v 0 c 0.0231,-0.115475 0.0231,-0.683316 -1.709281,-1.236266 v 0 c -1.36437,-0.436157 -3.917873,-0.422585 -6.981907,-0.09643 v 0 c 3.544025,1.733883 6.996707,2.595358 8.090917,2.078888 v 0 c 0.267519,-0.13037 0.591974,-0.574917 0.591974,-0.574917 v 0 c 0,0 -0.192863,0.876275 -0.331337,1.095342 v 0 c -0.176743,0.238015 -0.523444,0.495826 -0.852141,0.582737 v 0 C 47.996771,46.773078 43.498612,45.706204 39.577252,43.46556 v 0 c -4.381179,0.645234 -9.192671,1.837195 -13.049461,3.102212 v 0 c -3.790051,6.642088 -6.639448,9.692641 -8.957481,8.532165 v 0 l -0.852236,-0.428522 c -0.346418,-0.198142 -0.3993,-0.680488 -0.319176,-1.073285 v 0 c 0.270253,-1.322233 1.928253,-3.313738 5.258675,-5.302413 v 0 c 0.358485,-0.216902 1.95531,-1.06122 1.95531,-1.06122 v 0 c 0,0 -1.182159,1.144171 -1.459106,1.368707 v 0 c -2.65823,2.178334 -4.620135,4.918856 -4.571213,5.981299 v 0 l 0.0096,0.09266 c 2.258086,-0.321815 5.644408,-4.917911 9.997872,-13.436126 m 1.379639,0.706411 c -0.727147,1.369461 -1.437894,2.639189 -2.094063,3.80504 v 0 c 3.629711,-1.520753 7.536368,-2.49393 11.255155,-3.185258 v 0 C 37.630983,42.222133 37.145809,41.856671 36.68929,41.47038 v 0 c -2.047875,-1.733787 -3.60916,-3.896851 -4.740889,-6.173031 v 0 c -0.717721,1.933625 -1.571182,3.988381 -2.978726,6.650099"
     id="path4463"
     inkscape:connector-curvature="0"
     style="display:inline;fill:#ffffff;stroke-width:0.10366295;enable-background:new" />
  <path
     style="color:#000000;display:inline;overflow:visible;visibility:visible;opacity:0.075;fill:#ffffff;fill-opacity:1;fill-rule:nonzero;stroke:none;stroke-width:0.26457033;marker:none;enable-background:accumulate"
     d="M 33.688673,3.4856504 V 62.7494 h 12.984614 c 9.338464,0 10.054627,-0.962123 10.297574,-10.316435 V 33.117525 20.418149 L 40.038361,3.4856504 Z"
     id="path4231"
     inkscape:connector-curvature="0"
     sodipodi:nodetypes="ccsscccc" />
  <path
     inkscape:connector-curvature="0"
     style="color:#000000;display:inline;overflow:visible;visibility:visible;opacity:0.075;fill:#ffffff;fill-opacity:1;fill-rule:nonzero;stroke:none;stroke-width:0.26457033;marker:none;enable-background:accumulate"
     d="m 10.406486,33.117525 v 19.31544 C 10.360716,61.790319 11.365594,62.7494 20.704059,62.7494 h 25.969228 c 9.338464,0 10.054627,-0.962123 10.297574,-10.316435 v -19.31544 z"
     id="path4255"
     sodipodi:nodetypes="ccssscc" />
  <path
     style="color:#000000;display:inline;overflow:visible;visibility:visible;opacity:0.075;fill:#ffffff;fill-opacity:1;fill-rule:nonzero;stroke:none;stroke-width:2.11656237;stroke-linecap:butt;stroke-linejoin:miter;stroke-miterlimit:4;stroke-dasharray:none;stroke-dashoffset:0;stroke-opacity:1;marker:none;enable-background:accumulate"
     d="M 41.096642,62.7494 56.970861,46.875181 v 5.948567 C 56.957021,61.81803 55.964784,62.7494 46.871127,62.7494 Z"
     id="path4254"
     inkscape:connector-curvature="0"
     sodipodi:nodetypes="cccsc" />
  <path
     inkscape:connector-curvature="0"
     style="color:#000000;display:inline;overflow:visible;visibility:visible;opacity:0.1;fill:url(#radialGradient1752);fill-opacity:1;fill-rule:nonzero;stroke:none;stroke-width:1;marker:none;filter:url(#filter2553);enable-background:accumulate"
     d="m 185.33354,74.825228 -64,-65.9999998 0.003,24.9985698 v 1 0.53711 c 0,35.29429 1.62603,39.63197 36.99414,39.45899 z"
     id="rect4158-0-3-6"
     sodipodi:nodetypes="ccccscc"
     transform="matrix(0.26457031,0,0,0.26457031,7.9371086,1.1507564)" />
  <path
     inkscape:connector-curvature="0"
     style="color:#000000;display:inline;overflow:visible;visibility:visible;opacity:0.1;fill:#000000;fill-opacity:1;fill-rule:nonzero;stroke:none;stroke-width:1;marker:none;filter:url(#filter8603);enable-background:accumulate"
     d="m 185.33354,74.825228 v -2 l -64,-63.9999998 v 0 24.9990938 1 0.53711 c 0,34.463796 4,39.463796 36.99414,39.458996 z"
     id="rect4158-0-3-2"
     sodipodi:nodetypes="ccccccscc"
     transform="matrix(0.26457031,0,0,0.26457031,7.9371086,1.1507564)" />
  <path
     inkscape:connector-curvature="0"
     style="color:#000000;display:inline;overflow:visible;visibility:visible;fill:url(#linearGradient12719-7);fill-opacity:1;fill-rule:nonzero;stroke:none;stroke-width:0.26457033;marker:none;enable-background:accumulate"
     d="M 56.970085,20.416739 40.039136,3.4857874 v 6.084601 0.264571 0.142103 c 0,9.3378206 0.95934,10.4854426 10.316692,10.4396766 z"
     id="rect4158-0-3-27" />
</svg>
